X:0820081
T:[ID 8-93]
T:Bezeichnung standardisiert: Brezon Valse;
T:Waltzer [mit Trio]
T:In anderer Quelle: No: 59 (des "3.teiles") - H. N. Philipp um 1800 (Anm. S. Wascher);  Walzer - Notensammlung "Altfrentsch", spates 18. Jh. (Anm. S. Wascher); 
C:[Soyez Serieux - Schellack Le Soleil 53, 1929 (Anm. S. Wascher)]
T:In anderer Quelle: Brezon valse - The Massif Central Tune Book No. 2. (Anm. S. Wascher); 
C:Urheber unbekannt
C:Erstbeleg: 1792 (Datum in der schriftlichen Quelle)
C:Datum in der hier transkribierten schriftlichen Quelle: 1792
O:Deutschland; Westfalen; Dinker
S:"Tanzsammlung Dahlhoff" Staatsbibliothek zu Berlin, Musiksammlung, Mus. ms. 40182, Buch 08v, 008/1 (= 8, 188/1), PDF Nr: 1127
S:Scan online: http://resolver.staatsbibliothek-berlin.de/SBB0000969000001127
F:http://simonwascher.info/TradArchiv/Dahlhoff/ file-version 2017-11-21
Z:Erfassung in abc Thomas Behr th_behr@web.de
%
M:3/8
L:1/16
K:C
%
c2cGce | c2cGce | c2cGce | d2d2d2 | B2BGBd | B2BGBd | B2BGBd | c2c2c2 H:|e2eceg | f2f2f2 | B2BGBd | c2c2c2 | e2eceg | f2f2f2 | B2BGBd | c2c2c2 H:|
P:Trio
K:F
c2c2c2 | A2A2A2 | c2cBAG | A2F2F2 | c2c2c2 | A2A2A2 | c2cBAG | F6 ::
c6 | f2e2d2 | c6 | f2e2d2 | c2c2c2 | A2A2A2 | c2cBAG | F6 H:|

